packages/ffe-icons/icons/open/400/sm/bloodtype.svg

<svg xmlns="http://www.w3.org/2000/svg" height="20" viewBox="0 -960 960 960" width="20"><path d="M480-96q-130 0-221-91t-91-221q0-61 27.529-120.615 27.53-59.616 68.824-114.423 41.294-54.808 89.471-102.885Q402-794 443-831q8-7 17.523-10.5 9.524-3.5 19.5-3.5Q490-845 499-841.5t16.68 11.5Q556-793 604-745q48 48 90 102.91t70 114.637Q792-467.727 792-408q0 130-91 221T480-96Zm0-72q100 0 170-70t70-169.867Q720-476 666-557q-54-81-186-212-132 131-186 212t-54 149.133Q240-308 310-238q70 70 170 70Zm0-312Zm-84 240h168q15.3 0 25.65-10.289 10.35-10.29 10.35-25.5Q600-291 589.65-301.5 579.3-312 564-312H396q-15.3 0-25.65 10.289-10.35 10.29-10.35 25.5Q360-261 370.35-250.5 380.7-240 396-240Zm48-204v48q0 15.3 10.289 25.65 10.29 10.35 25.5 10.35Q495-360 505.5-370.35 516-380.7 516-396v-48h48q15.3 0 25.65-10.289 10.35-10.29 10.35-25.5Q600-495 589.65-505.5 579.3-516 564-516h-48v-48q0-15.3-10.289-25.65-10.29-10.35-25.5-10.35Q465-600 454.5-589.65 444-579.3 444-564v48h-48q-15.3 0-25.65 10.289-10.35 10.29-10.35 25.5Q360-465 370.35-454.5 380.7-444 396-444h48Z"/></svg>

<svg xmlns="http://www.w3.org/2000/svg" height="20" viewBox="0 -960 960 960" width="20"><path d="M480-96q-130 0-221-91t-91-221q0-61 27.53-120.62 27.53-59.61 68.82-114.42 41.3-54.81 89.47-102.88Q402-794 443-831q8-7 17.52-10.5 9.53-3.5 19.5-3.5 9.98 0 18.98 3.5t16.68 11.5Q556-793 604-745q48 48 90 102.91t70 114.64q28 59.72 28 119.45 0 130-91 221T480-96Zm0-72q100 0 170-70t70-169.87Q720-476 666-557T480-769Q348-638 294-557t-54 149.13Q240-308 310-238t170 70Zm0-312Zm-84 240h168q15.3 0 25.65-10.29Q600-260.58 600-275.79t-10.35-25.71Q579.3-312 564-312H396q-15.3 0-25.65 10.29Q360-291.42 360-276.21t10.35 25.71Q380.7-240 396-240Zm48-204v48q0 15.3 10.29 25.65Q464.58-360 479.79-360t25.71-10.35Q516-380.7 516-396v-48h48q15.3 0 25.65-10.29Q600-464.58 600-479.79t-10.35-25.71Q579.3-516 564-516h-48v-48q0-15.3-10.29-25.65Q495.42-600 480.21-600t-25.71 10.35Q444-579.3 444-564v48h-48q-15.3 0-25.65 10.29Q360-495.42 360-480.21t10.35 25.71Q380.7-444 396-444h48Z"/></svg>
